icons/lines/tag-right.svg

<svg xmlns="http://www.w3.org/2000/svg" width="24" height="24" viewBox="0 0 24 24" fill="none" stroke="currentColor" stroke-width="2" stroke-linecap="round" stroke-linejoin="round" >
  <path d="M4.22013 3.09998H15.6601C16.3401 3.09998 17.1901 3.56998 17.5501 4.14998L21.7301 10.83C22.1301 11.48 22.0902 12.5 21.6302 13.11L16.4502 20.01C16.0802 20.5 15.2801 20.9 14.6701 20.9H4.22013C2.47013 20.9 1.41018 18.98 2.33018 17.49L5.10013 13.06C5.47013 12.47 5.47013 11.51 5.10013 10.92L2.33018 6.48998C1.41018 5.01998 2.48013 3.09998 4.22013 3.09998Z" stroke-miterlimit="10"/>
  </svg>

<svg xmlns="http://www.w3.org/2000/svg" width="24" height="24" viewBox="0 0 24 24" fill="none" stroke="currentColor" stroke-width="2" stroke-linecap="round" stroke-linejoin="round">
  <path d="M15.66 3.1c.68 0 1.53.47 1.89 1.05l4.18 6.68c.4.65.36 1.67-.1 2.28l-5.18 6.9c-.37.49-1.17.89-1.78.89H4.22c-1.75 0-2.81-1.92-1.89-3.41l2.77-4.43c.37-.59.37-1.55 0-2.14L2.33 6.49c-.92-1.47.15-3.39 1.89-3.39z" />
</svg>
